X:1
T:Under the Tribroro
C:Bruce Gandy
R:Strathspey
M:4/4
L:1/8
K:D
Z:Transcribed by Stephen Beitzel
[| {Gdc}d2 {g}(3::(fed) {gBd}B>A {g}B<d | {g}A>{d}B {ag}a>f {g}e>d {g}e<f | {Gdc}d2 {g}(3::(fed) {gBd}B>A {g}B<d | {ag}a>f {g}e>d {g}e<f {Gdc}d2 |
| {gdG}d2 {g}(3::(fed) {gBd}B>A {g}B<d | {g}A>{d}B {ag}a>f {g}e>d {g}e<f | {Gdc}d2 {g}(3::(fed) {gBd}B>A {g}B<d | {ag}a>f {g}e>d {g}e<f {Gdc}d2 |]
[|: {g}f>e {g}f<a {ef}e>d {g}e<f | {ag}a>f {g}e>d {g}e<f {gBd}B2 | {Gdc}d>e {gde}d>A {g}B<d {g}e>f | {ag}a>f {g}e>d {g}e<f {Gdc}d2 :|]
